app/dist/common/images/hefei-chipmore-technology.svg

<svg height="18" viewBox="0 0 18 18" width="18" xmlns="http://www.w3.org/2000/svg"><path d="m0 0h18v18h-18z" fill="#f0f3fa"/><path d="m15 12h-2.1l-1.16-4.84a797.84 797.84 0 0 1 .23-1.16h1.54zm-2.6 0h-2.04l-1.2-4.82.31-1.18h1.51zm-2.46 0h-1.94l.94-4.01zm-4.54 0h-.37c-1.53-.43-2.03-1.63-2.03-3.08 0-1.57.67-2.46 2.16-2.92h.24zm0-6 1.6 2.16v-2.16zm0 6h1.6v-2.29z" fill="#1d96d5"/></svg>

<!-- by TradingView --><svg width="18" height="18" viewBox="0 0 18 18" xmlns="http://www.w3.org/2000/svg"><path fill="#F0F3FA" d="M0 0h18v18H0z"/><path d="M15 12h-2.1l-1.16-4.84A797.84 797.84 0 0 1 11.97 6h1.54L15 12Zm-2.6 0h-2.04l-1.2-4.82L9.47 6h1.51l1.42 6Zm-2.46 0H8l.94-4.01 1 4.01ZM5.4 12h-.37C3.5 11.57 3 10.37 3 8.92 3 7.35 3.67 6.46 5.16 6h.24v6Zm0-6L7 8.16V6H5.4Zm0 6H7V9.71L5.4 12Z" fill="#1D96D5"/></svg>
